resources/svg/major-store.svg

<svg xmlns="http://www.w3.org/2000/svg" viewBox="0 0 20 20" fill="currentColor"><path d="m1.791 2.253-.597 3.583a1 1 0 0 0 .986 1.164h.893a1.5 1.5 0 0 0 1.342-.83l.585-1.17.585 1.17a1.5 1.5 0 0 0 1.342.83h1.146a1.5 1.5 0 0 0 1.342-.83l.585-1.17.585 1.17a1.5 1.5 0 0 0 1.342.83h1.146a1.5 1.5 0 0 0 1.342-.83l.585-1.17.585 1.17a1.5 1.5 0 0 0 1.342.83h.893a1 1 0 0 0 .986-1.164l-.597-3.583a1.5 1.5 0 0 0-1.48-1.253h-13.458a1.5 1.5 0 0 0-1.48 1.253z"/><path d="M18 9h-16v8.5a1.5 1.5 0 0 0 1.5 1.5h3.5v-7h6v7h3.5a1.5 1.5 0 0 0 1.5-1.5v-8.5z"/></svg>

<svg xmlns="http://www.w3.org/2000/svg" viewBox="0 0 20 20" fill="currentColor"><path d="m1.791 2.253-.597 3.583A1 1 0 0 0 2.18 7h.893a1.5 1.5 0 0 0 1.342-.83L5 5l.585 1.17A1.5 1.5 0 0 0 6.927 7h1.146a1.5 1.5 0 0 0 1.342-.83L10 5l.585 1.17a1.5 1.5 0 0 0 1.342.83h1.146a1.5 1.5 0 0 0 1.342-.83L15 5l.585 1.17a1.5 1.5 0 0 0 1.342.83h.893a1 1 0 0 0 .986-1.164l-.597-3.583A1.5 1.5 0 0 0 16.729 1H3.271a1.5 1.5 0 0 0-1.48 1.253zM18 9H2v8.5A1.5 1.5 0 0 0 3.5 19H7v-7h6v7h3.5a1.5 1.5 0 0 0 1.5-1.5V9z"/></svg>
